X: 1
P: Odessa Bulgarish
R: Bulgar, Frailach
C: Compleat Klezmer, arr. T. Traub 5-9-2015
M: 2/4
L: 1/8
K: Dm
zA,DF|: S"Dm"A2 ^G2|A2 =B2|c2 =B2 |A^G F2|"Dm"^G/=B/A AA|A^GFG|A=BA^G|FEF^G|"Dm"A2 ^G2|
"Dm"A2 =B2|c2 =B2 |A^G F2|"A7"EF A/^G/F|^G2 A2|"Dm"D3 A|A/^G/F F2|"A7"EF A/^G/F|^G2 A2| [1 "Dm"D4 | zA,DF :| [2 "Dm"D4-|+fine+D4 
|: "Dm"z ddd|dddd|"E7"dc=Bd|"Am"c=BAc|"E7"=BA^GB|"Dm"A^G F2|"A7"EF A/^G/F|
"Dm"^G2 A2|"Dm"D3 A|A/^G/F F2|"A7"EF A/^G/F|"A7"^G2 A2|"Dm"D4-|D4 :|
|: "Dm"D D2 A|A/^G/F F2|"A7"F/E/D EF|"Dm"^GA F/E/D|"Dm"D D2 A|A/^G/F F2|"A7"EDEF|"Dm"E D3 +D.S.+:|

%%newpage
